app/[lang]/(home)/(new-home)/assets/db-appicons/milvus.svg

<svg
  width="49"
  height="49"
  viewBox="0 0 49 49"
  fill="none"
  xmlns="http://www.w3.org/2000/svg"
>
  <path
    d="M12.7924 13.872C14.1714 12.4862 15.8107 11.3865 17.6159 10.6362C19.4212 9.88579 21.357 9.49951 23.312 9.49951C25.267 9.49951 27.2028 9.88579 29.008 10.6362C30.8133 11.3865 32.4525 12.4862 33.8315 13.872C36.6267 16.6714 38.1967 20.4657 38.1967 24.4217C38.1967 28.3777 36.6267 32.172 33.8315 34.9715C32.4513 36.3556 30.8114 37.4536 29.0059 38.2025C27.2004 38.9514 25.2648 39.3365 23.3101 39.3357C21.3554 39.3348 19.4201 38.9481 17.6153 38.1976C15.8104 37.4471 14.1714 36.3477 12.7924 34.9624L3.2969 25.4337C3.02742 25.1635 2.8761 24.7974 2.8761 24.4157C2.8761 24.034 3.02742 23.668 3.2969 23.3977L12.7924 13.872ZM31.5783 16.6712C30.5651 15.6534 29.3609 14.8457 28.0347 14.2947C26.7085 13.7436 25.2865 13.4599 23.8504 13.4599C22.4143 13.4599 20.9923 13.7436 19.6661 14.2947C18.3399 14.8457 17.1357 15.6534 16.1225 16.6712L9.14865 23.6692C8.95191 23.8684 8.8416 24.1372 8.8416 24.4172C8.8416 24.6972 8.95191 24.966 9.14865 25.1653L16.1345 32.1723C17.1477 33.1901 18.352 33.9977 19.6782 34.5488C21.0044 35.0999 22.4263 35.3836 23.8625 35.3836C25.2986 35.3836 26.7206 35.0999 28.0468 34.5488C29.3729 33.9977 30.5772 33.1901 31.5904 32.1723C33.6402 30.1131 34.7902 27.3254 34.7886 24.4199C34.7869 21.5144 33.6336 18.728 31.5813 16.6712H31.5783ZM23.9379 17.0693C27.9949 17.0693 31.2857 20.4085 31.2857 24.5258C31.2857 28.6462 27.9979 31.9853 23.9379 31.9853C19.8779 31.9853 16.587 28.6462 16.587 24.5258C16.587 20.4085 19.8779 17.0693 23.9379 17.0693ZM46.3314 23.5123L42.0964 19.2592C42.0425 19.2026 41.9713 19.1655 41.894 19.1537C41.8167 19.1419 41.7377 19.1561 41.6694 19.1941C41.6011 19.232 41.5473 19.2916 41.5165 19.3635C41.4856 19.4353 41.4796 19.5154 41.4991 19.591C42.2292 22.8414 42.2292 26.2132 41.4991 29.4636C41.4207 29.8165 41.849 30.0457 42.0964 29.7954L46.3314 25.5453C46.5992 25.2748 46.7494 24.9095 46.7494 24.5288C46.7494 24.1481 46.5992 23.7828 46.3314 23.5123Z"
    fill="#43B6EA"
  />
</svg>

<svg xmlns="http://www.w3.org/2000/svg" fill="none" viewBox="0 0 49 49">
  <path
    fill="#43B6EA"
    d="M12.8 13.87a14.84 14.84 0 0 1 21.03 0 14.93 14.93 0 0 1-10.52 25.47 14.85 14.85 0 0 1-10.52-4.38l-9.5-9.53a1.44 1.44 0 0 1 0-2.03l9.5-9.53Zm18.78 2.8a10.9 10.9 0 0 0-15.46 0l-6.97 7a1.06 1.06 0 0 0 0 1.5l6.98 7a10.9 10.9 0 0 0 18.66-7.75c0-2.9-1.16-5.7-3.2-7.75h-.01Zm-7.64.4a7.4 7.4 0 0 1 7.35 7.46 7.4 7.4 0 0 1-7.35 7.46 7.4 7.4 0 0 1-7.35-7.46 7.4 7.4 0 0 1 7.35-7.46Zm22.4 6.44-4.24-4.25a.35.35 0 0 0-.6.33c.73 3.25.73 6.62 0 9.87-.08.36.35.59.6.34l4.23-4.25a1.44 1.44 0 0 0 0-2.04Z"
  />
</svg>
